packages/icons/raw/imported/OtherLightning.svg

<svg width="32" height="32" viewBox="0 0 32 32" fill="none" xmlns="http://www.w3.org/2000/svg">
<path d="M21.9583 9.15073C22.0242 9.05995 22.1002 8.97654 22.1713 8.88984C22.9309 7.96378 22.2966 6.5 21.0613 6.5H15.2184C14.8071 6.5 14.4156 6.67956 14.143 6.99316L9.8632 13.5701C9.04342 14.5134 9.70135 16 10.9386 16H11.2073C12.3668 16 13.0293 17.3141 12.4073 18.2649C12.3559 18.3435 12.3062 18.424 12.2705 18.5109L10.1243 23.7403C10.053 23.9141 9.94382 24.0717 9.87585 24.2468C9.65341 24.8198 10.0579 25.5 10.7197 25.5C10.8911 25.5 11.0589 25.4504 11.2036 25.357L20.0208 18.2752C21.0454 17.6138 20.5851 16 19.3718 16C18.3094 16 17.7737 14.7172 18.4728 13.939C18.5103 13.8973 18.5478 13.8552 18.5807 13.8098L21.9583 9.15073Z" stroke="black"/>
</svg>

<svg width="32" height="32" fill="none" xmlns="http://www.w3.org/2000/svg"><path d="M21.958 9.15c.066-.09.142-.173.213-.26.76-.926.126-2.39-1.11-2.39h-5.843c-.41 0-.802.18-1.075.493l-4.28 6.577c-.82.943-.162 2.43 1.076 2.43h.268c1.16 0 1.822 1.314 1.2 2.265a1.49 1.49 0 0 0-.136.246l-2.147 5.23c-.071.173-.18.33-.248.506-.223.573.182 1.253.844 1.253.171 0 .339-.05.484-.143l8.817-7.082c1.024-.661.564-2.275-.65-2.275-1.062 0-1.597-1.283-.898-2.061.037-.042.075-.084.108-.13l3.377-4.658Z" stroke="#000"/></svg>
